Newaita-dark/.DP/16/cryptkeeper.svg

<svg xmlns="http://www.w3.org/2000/svg" xmlns:xlink="http://www.w3.org/1999/xlink" width="16px" height="16px" viewBox="0 0 16 16" version="1.1">
<g id="surface1">
<path style=" stroke:none;fill-rule:nonzero;fill:rgb(93.333334%,93.333334%,93.333334%);fill-opacity:1;" d="M 11.851562 2.1875 C 11.496094 2.109375 10.75 2.332031 10.601562 2.589844 L 10.46875 2.816406 C 10.433594 2.792969 10.386719 2.789062 10.34375 2.800781 L 10.023438 2.886719 C 9.9375 2.910156 9.882812 3 9.90625 3.085938 L 9.992188 3.40625 C 10.003906 3.453125 10.035156 3.488281 10.070312 3.507812 L 9.921875 3.761719 C 9.894531 3.753906 9.863281 3.753906 9.835938 3.761719 L 9.195312 3.933594 C 9.105469 3.957031 9.054688 4.046875 9.078125 4.136719 L 9.25 4.773438 C 9.257812 4.804688 9.273438 4.832031 9.292969 4.851562 L 9.277344 4.878906 C 9.292969 4.898438 9.304688 4.917969 9.3125 4.941406 L 9.445312 5.285156 C 9.480469 5.382812 9.429688 5.472656 9.328125 5.488281 L 8.960938 5.546875 C 8.9375 5.550781 8.914062 5.550781 8.894531 5.546875 L 8.871094 5.582031 C 8.835938 5.5625 8.789062 5.554688 8.746094 5.566406 L 8.425781 5.652344 C 8.339844 5.675781 8.285156 5.765625 8.308594 5.855469 L 8.394531 6.175781 C 8.40625 6.21875 8.4375 6.253906 8.472656 6.277344 L 7.953125 7.171875 L 7.214844 7.128906 L 6.464844 8.429688 C 5.308594 8.074219 4.332031 8.15625 4.007812 8.714844 L 3.347656 9.859375 C 2.890625 10.652344 3.925781 12.101562 5.671875 13.109375 C 7.417969 14.117188 9.191406 14.289062 9.648438 13.496094 L 10.3125 12.351562 C 10.632812 11.792969 10.214844 10.910156 9.328125 10.082031 L 10.082031 8.78125 L 9.671875 8.164062 L 12.320312 3.582031 C 12.46875 3.324219 12.289062 2.566406 12.042969 2.296875 C 12.128906 2.402344 12.144531 2.558594 12.070312 2.691406 L 8.613281 8.679688 C 8.515625 8.84375 8.3125 8.90625 8.152344 8.8125 C 7.992188 8.722656 7.945312 8.515625 8.039062 8.347656 L 11.496094 2.359375 C 11.574219 2.230469 11.714844 2.164062 11.851562 2.1875 Z M 6.804688 11.089844 L 6.855469 11.121094 C 7.632812 11.570312 8.1875 12.058594 8.097656 12.21875 L 7.765625 12.792969 C 7.675781 12.949219 6.972656 12.714844 6.195312 12.265625 L 6.140625 12.234375 C 5.363281 11.785156 4.808594 11.296875 4.902344 11.136719 L 5.230469 10.566406 C 5.324219 10.40625 6.023438 10.640625 6.804688 11.089844 Z M 6.804688 11.089844 "/>
</g>
</svg>

<svg xmlns="http://www.w3.org/2000/svg" width="16pt" height="16pt" viewBox="0 0 16 16"><path d="M11.852 2.188c-.356-.079-1.102.144-1.25.402l-.133.226a.154.154 0 0 0-.125-.015l-.32.086a.165.165 0 0 0-.118.199l.086.32a.162.162 0 0 0 .078.102l-.148.254a.16.16 0 0 0-.086 0l-.64.172a.164.164 0 0 0-.118.203l.172.636a.17.17 0 0 0 .043.079l-.016.027c.016.02.028.039.036.062l.132.344c.035.098-.015.188-.117.203l-.367.059a.19.19 0 0 1-.066 0l-.024.035a.171.171 0 0 0-.125-.016l-.32.086a.167.167 0 0 0-.117.203l.086.32a.185.185 0 0 0 .078.102l-.52.895-.738-.043-.75 1.3c-1.156-.355-2.133-.273-2.457.286l-.66 1.144c-.457.793.578 2.243 2.324 3.25 1.746 1.008 3.52 1.18 3.976.387l.665-1.144c.32-.559-.098-1.442-.985-2.27l.754-1.3-.41-.618 2.648-4.582c.149-.258-.03-1.016-.277-1.285a.353.353 0 0 1 .027.394L8.613 8.68c-.097.164-.3.226-.46.133-.16-.09-.208-.297-.114-.465l3.457-5.989a.35.35 0 0 1 .356-.171zM6.805 11.09l.05.031c.778.45 1.332.938 1.243 1.098l-.332.574c-.09.156-.793-.078-1.57-.527l-.055-.032c-.778-.449-1.332-.937-1.239-1.097l.328-.57c.094-.16.793.074 1.575.523zm0 0" fill="#bdbdbd"/></svg>
